src/assets/svg/Frame 16-1.svg

<svg width="78" height="78" viewBox="0 0 78 78" fill="none" xmlns="http://www.w3.org/2000/svg">
<path d="M63.6611 50.349L57.7656 46.1565C58.7557 42.5159 58.7501 38.6761 57.7493 35.0383L63.6643 30.8978L58.9421 22.7273L52.3641 25.7368C49.7053 23.0589 46.3762 21.144 42.7246 20.1923L42.0973 13H32.6528L32.0256 20.1923C28.3747 21.1453 25.0467 23.0613 22.3893 25.74L15.8081 22.7305L11.0891 30.901L17.0041 35.0415C16.0028 38.678 15.9961 42.5166 16.9846 46.1565L11.0891 50.349L15.8081 58.4805L22.3893 55.4678C25.0471 58.1453 28.375 60.0602 32.0256 61.0123L32.6528 68.2045H42.0973L42.7246 61.0123C46.3751 60.06 49.703 58.1452 52.3608 55.4678L58.9421 58.4805L63.6643 50.3523L63.6611 50.349ZM43.8913 9.70129C44.3097 9.70085 44.712 9.86176 45.0147 10.1505C45.3174 10.4393 45.4971 10.8337 45.5163 11.2515L46.0948 17.8653C48.4973 18.7808 50.7386 20.0732 52.7346 21.6938L58.7471 18.889C59.1184 18.698 59.5491 18.6572 59.9497 18.7752C60.3503 18.8932 60.6901 19.1609 60.8986 19.5228L67.4148 30.8003C67.6242 31.1618 67.6863 31.59 67.5883 31.9961C67.4902 32.4022 67.2396 32.7549 66.8883 32.981L61.4478 36.79C61.8638 39.3835 61.8508 41.9673 61.4511 44.4568L66.8883 48.2593C67.2404 48.4855 67.4917 48.8388 67.5898 49.2457C67.6878 49.6525 67.6252 50.0815 67.4148 50.4433L60.8986 61.6785C60.6901 62.0404 60.3503 62.3081 59.9497 62.4261C59.5491 62.5441 59.1184 62.5034 58.7471 62.3123L52.7346 59.5075C50.7781 61.1 48.5486 62.4 46.0948 63.3393L45.5163 69.953C45.4963 70.3704 45.3162 70.7639 45.0136 71.052C44.711 71.3401 44.3091 71.5005 43.8913 71.5H30.8588C30.441 71.5005 30.0391 71.3401 29.7365 71.052C29.4339 70.7639 29.2539 70.3704 29.2338 69.953L28.6553 63.3393C26.2527 62.4226 24.0114 61.1291 22.0156 59.5075L16.0031 62.3123C15.6318 62.5046 15.2006 62.5464 14.7993 62.429C14.398 62.3116 14.0574 62.0439 13.8483 61.6818L7.33532 50.44C7.12595 50.0786 7.06383 49.6503 7.16187 49.2442C7.25991 48.8382 7.51058 48.4854 7.86182 48.2593L13.2991 44.4535C12.8919 41.9142 12.8919 39.3262 13.2991 36.7868L7.86507 32.981C7.51469 32.755 7.26462 32.4028 7.16662 31.9975C7.06862 31.5922 7.13018 31.1647 7.33857 30.8035L13.8451 19.5228C14.0536 19.1601 14.394 18.8918 14.7953 18.7737C15.1967 18.6557 15.6281 18.697 15.9998 18.889L22.0123 21.6938C24.0083 20.0732 26.2496 18.7808 28.6521 17.8653L29.2306 11.2515C29.2498 10.8337 29.4295 10.4393 29.7322 10.1505C30.0349 9.86176 30.4372 9.70085 30.8556 9.70129H43.8881H43.8913ZM37.3751 29.25C40.3919 29.25 43.2852 30.4485 45.4184 32.5817C47.5516 34.7149 48.7501 37.6082 48.7501 40.625C48.7501 43.6419 47.5516 46.5352 45.4184 48.6684C43.2852 50.8016 40.3919 52 37.3751 52C34.3582 52 31.465 50.8016 29.3317 48.6684C27.1985 46.5352 26.0001 43.6419 26.0001 40.625C26.0001 37.6082 27.1985 34.7149 29.3317 32.5817C31.465 30.4485 34.3582 29.25 37.3751 29.25ZM37.3751 32.5C35.2202 32.5 33.1536 33.3561 31.6298 34.8798C30.1061 36.4035 29.2501 38.4702 29.2501 40.625C29.2501 42.7799 30.1061 44.8466 31.6298 46.3703C33.1536 47.894 35.2202 48.75 37.3751 48.75C39.53 48.75 41.5966 47.894 43.1203 46.3703C44.644 44.8466 45.5001 42.7799 45.5001 40.625C45.5001 38.4702 44.644 36.4035 43.1203 34.8798C41.5966 33.3561 39.53 32.5 37.3751 32.5Z" fill="black"/>
</svg>

<svg xmlns="http://www.w3.org/2000/svg" width="78" height="78" fill="none" xmlns:v="https://vecta.io/nano"><path d="M63.661 50.349l-5.895-4.192a21.07 21.07 0 0 0-.016-11.118l5.915-4.14-4.722-8.171-6.578 3.009c-2.659-2.678-5.988-4.593-9.639-5.544L42.097 13h-9.444l-.627 7.192a21.07 21.07 0 0 0-9.636 5.548l-6.581-3.009-4.719 8.171 5.915 4.14a21.07 21.07 0 0 0-.02 11.115l-5.895 4.192 4.719 8.132 6.581-3.013a21.07 21.07 0 0 0 9.636 5.545l.627 7.192h9.444l.627-7.192c3.651-.952 6.978-2.867 9.636-5.545l6.581 3.013 4.722-8.128-.003-.003zM43.891 9.701c.418 0 .821.16 1.123.449s.482.683.502 1.101l.578 6.614a24.21 24.21 0 0 1 6.64 3.828l6.013-2.805c.371-.191.802-.232 1.203-.114s.74.386.949.748L67.415 30.8c.209.361.272.79.174 1.196s-.349.759-.7.985l-5.44 3.809a24.17 24.17 0 0 1 .003 7.667l5.437 3.803c.352.226.603.579.701.986s.035.836-.175 1.198l-6.516 11.235c-.209.362-.548.63-.949.748s-.831.077-1.203-.114l-6.013-2.805c-1.956 1.593-4.186 2.892-6.64 3.832l-.578 6.614c-.02.417-.2.811-.503 1.099s-.704.448-1.122.448H30.859c-.418.001-.82-.16-1.122-.448s-.483-.682-.503-1.099l-.578-6.614a24.22 24.22 0 0 1-6.64-3.832l-6.012 2.805c-.371.192-.803.234-1.204.117s-.742-.385-.951-.747L7.335 50.44c-.209-.361-.271-.79-.173-1.196s.349-.759.7-.985l5.437-3.806a24.21 24.21 0 0 1 0-7.667l-5.434-3.806c-.35-.226-.6-.578-.698-.984s-.036-.833.172-1.194l6.507-11.281c.208-.363.549-.631.95-.749s.833-.077 1.205.115l6.012 2.805a24.21 24.21 0 0 1 6.64-3.828l.578-6.614c.019-.418.199-.812.502-1.101s.705-.45 1.123-.449h13.033.003zM37.375 29.25c3.017 0 5.91 1.198 8.043 3.332s3.332 5.026 3.332 8.043-1.199 5.91-3.332 8.043S40.392 52 37.375 52s-5.91-1.198-8.043-3.332S26 43.642 26 40.625s1.198-5.91 3.332-8.043 5.026-3.332 8.043-3.332zm0 3.25c-2.155 0-4.222.856-5.745 2.38s-2.38 3.59-2.38 5.745.856 4.222 2.38 5.745 3.59 2.38 5.745 2.38 4.221-.856 5.745-2.38 2.38-3.59 2.38-5.745-.856-4.221-2.38-5.745-3.59-2.38-5.745-2.38z" fill="#000"/></svg>
